!!!COM: Palestrina, Giovanni Perluigi da
!!!OPR: Quando lieta sperai
!!!OTL: Credo
**kern	**kern	**kern	**kern	**kern
*Ibass	*Ibarit	*Itenor	*Icalto	*Icant
!Bassus	!Baritone	!Tenor	!Altus	!Cantus
*clefF4	*clefF4	*clefGv2	*clefG2	*clefG2
*k[]	*k[]	*k[]	*k[]	*k[]
*A:aeo	*A:aeo	*A:aeo	*A:aeo	*A:aeo
*M4/2	*M4/2	*M4/2	*M4/2	*M4/2
=1	=1	=1	=1	=1
1A	0r	1A	0r	0r
2G	.	2B	.	.
2F#	.	2A	.	.
=2	=2	=2	=2	=2
2G	2r	2B	0r	1e
2A	1e	2c	.	.
2.D	.	1d	.	[1f
.	[2d	.	.	.
4E	.	.	.	.
=3	=3	=3	=3	=3
4F	2d]	1A	0r	2f]
4G	.	.	.	.
2A	2c	.	.	2e
2D	2d	1r	.	2f
2E	2B	.	.	2g
=4	=4	=4	=4	=4
1AA	1A	2r	1e	1a
.	.	2e	.	.
1r	2D	2d	2f	2a
.	2A	2c#	2e	2a
=5	=5	=5	=5	=5
0r	2D	1d	2f	2a
.	2G	.	2g	2b
.	2F	2f	2a	1cc
.	2C	2e	[2g	.
=6	=6	=6	=6	=6
0r	1D	2.d	2g]	2b
.	.	.	2f	1a
.	.	4c	.	.
.	1E	1B	[1e	.
.	.	.	.	2g#
=7	=7	=7	=7	=7
2r	2A	2A	1e]	1a
1A	1c	1e	.	.
.	.	.	1r	1r
2G#	2B	2e	.	.
=8	=8	=8	=8	=8
2A	2c	2e	0r	0r
2D	2d	2f	.	.
1A	1c	2e	.	.
.	.	[2f	.	.
=9	=9	=9	=9	=9
2.G	2B	4f]	1r	1r
.	.	4e	.	.
.	2B	2e	.	.
8F	.	.	.	.
8E	.	.	.	.
2F	1A	2d	2r	2r
2F	.	2c	[2a	[2cc
=10	=10	=10	=10	=10
1E	0r	1e	2a]	2cc]
.	.	.	2g	2b
1r	.	1r	2f	2a
.	.	.	2e	2g
=11	=11	=11	=11	=11
0r	0r	2r	2.f	2.a
.	.	1d	.	.
.	.	.	4e	4g
.	.	.	2d	2f
.	.	2c	2A	2e
=12	=12	=12	=12	=12
0r	2r	2.f	1a	4d
.	.	.	.	4e
.	1d	.	.	4f
.	.	4e	.	4g
.	.	2d	2f	2.a
.	2c	2A	2e	.
.	.	.	.	8g#
.	.	.	.	8f#
=13	=13	=13	=13	=13
0r	2B	4d	2d	2g#
.	.	4B	.	.
.	2A	2.e	2c	1a
.	2B	.	2d	.
.	.	4d	.	.
.	2B	[2d	2d	2g#
=14	=14	=14	=14	=14
0r	0A	2d]	1.e	0a
.	.	4c	.	.
.	.	4B	.	.
.	.	2c	.	.
.	.	2c	[2a	.
=15	=15	=15	=15	=15
2.E	2.e	1B	2a]	2.b
.	.	.	2g#	.
4E	4e	.	.	4b
2E	2e	2.e	2g#	2b
2E	2B	.	2g#	2b
.	.	4e	.	.
=16	=16	=16	=16	=16
2A	2r	2e	1.a	2cc#
2A	2.A	2e	.	2cc#
1D	.	2f#	.	1dd
.	4A	.	.	.
.	[2d	2f#	2a	.
=17	=17	=17	=17	=17
1G	2d]	1g	1d	1b
.	1B	.	.	.
1E	.	2.g	[1e	1b
.	2e	.	.	.
.	.	4f	.	.
=18	=18	=18	=18	=18
0A	2.c	2e	2e]	0cc
.	.	2A	2e	.
.	4B	.	.	.
.	4A	1e	1a	.
.	4G#	.	.	.
.	2A	.	.	.
=19	=19	=19	=19	=19
0E	0B	1e	1g#	2b
.	.	.	.	2.b
.	.	2.e	2.g#	.
.	.	.	.	4b
.	.	.	.	2b
.	.	4e	4g#	.
=20	=20	=20	=20	=20
0r	0r	2e	2g#	1cc
.	.	1f	1a	.
.	.	.	.	1dd
.	.	2g	2b	.
=21	=21	=21	=21	=21
0r	0r	2e	2g	2ee
.	.	2c	2cc	2ee
.	.	2d	4b	2.dd
.	.	.	4a	.
.	.	2d	[2a	.
.	.	.	.	4cc
=22	=22	=22	=22	=22
2r	2r	1e	2a]	1.b
2.E	2.B	.	4g#	.
.	.	.	4f#	.
.	.	2r	2g#	.
4E	4B	.	.	.
2E	2B	[2e	2g#	2b
=23	=23	=23	=23	=23
1A	1c#	4e]	1a	2a
.	.	4e	.	.
.	.	2e	.	2.a
1D	1d	1f#	1r	.
.	.	.	.	4a
.	.	.	.	2b
=24	=24	=24	=24	=24
4C	2e	2g	0r	2cc
4D	.	.	.	.
4E	2e	1g	.	2cc
4F	.	.	.	.
2G	2.d	.	.	2b
2D	.	2f	.	2a
.	4c	.	.	.
=25	=25	=25	=25	=25
2E	2B	2e	1r	2g#
2F	2A	2d	.	1a
1E	2B	2.e	2r	.
.	2B	.	[2e	2g#
.	.	4d	.	.
=26	=26	=26	=26	=26
1AA	1A	4c	2e]	0a
.	.	4d	.	.
.	.	4e	2c	.
.	.	4c	.	.
2r	2r	2d	1f	.
[2A	[2c	2A	.	.
=27	=27	=27	=27	=27
2A]	2c]	1r	1e	0r
2G#	2B	.	.	.
1A	1c	2r	1e	.
.	.	[2A	.	.
=28	=28	=28	=28	=28
1E	1B	2A]	1e	1r
.	.	2G	.	.
1F	2A	2.c	2r	2r
.	2A	.	[2a	[2cc
.	.	4d	.	.
=29	=29	=29	=29	=29
1E	2r	1e	2a]	2cc]
.	2.e	.	2g	2b
2r	.	1A	1a	[1cc
.	4d	.	.	.
[2A	4c	.	.	.
.	4B	.	.	.
=30	=30	=30	=30	=30
2A]	2A	2r	1e	2cc]
2G#	2B	1e	.	2b
2A	2c	.	1f	1a
2D	2d	[2d	.	.
=31	=31	=31	=31	=31
1A	2e	2d]	1e	0a
.	1A	2.c	.	.
[1F	.	.	1r	.
.	.	4c	.	.
.	2A	2d	.	.
=32	=32	=32	=32	=32
2F]	1A	2c	2r	2r
2F	.	2A	1a	1cc
1E	2r	2.e	.	.
.	2E	.	2g	2b
.	.	4d	.	.
=33	=33	=33	=33	=33
0r	2F	0c	2f	2a
.	2C	.	2e	2g
.	4F	.	1f	1a
.	4G	.	.	.
.	4A	.	.	.
.	4B	.	.	.
=34	=34	=34	=34	=34
0r	2c	1r	2e	2g
.	2d	.	2d	2f
.	1A	2r	2.c#	1e
.	.	2A	.	.
.	.	.	4d	.
=35	=35	=35	=35	=35
1E	2r	2B	1e	0r
.	2G	1c	.	.
2F	2A	.	1r	.
2F	2A	[2d	.	.
=36	=36	=36	=36	=36
1G	1B	2d]	1d	0r
.	.	1G	.	.
1C	2c	.	2e	.
.	2e	[2c	2e	.
=37	=37	=37	=37	=37
1G	2e	2c]	1.g	2r
.	1d	2B	.	2b
2E	.	2G	.	2cc
2F	[2c	[2A	2c	2cc
=38	=38	=38	=38	=38
2D	2c]	2A]	1f	1dd
2D	2B	2F	.	.
1C	1c	2G	2e	1g
.	.	2g	2cc	.
=39	=39	=39	=39	=39
0r	1d	2g	2b	1dd
.	.	2f#	2.a	.
.	2e	1g	.	2b
.	.	.	4g	.
.	2c	.	[2g	2cc
=40	=40	=40	=40	=40
0r	2d	1r	2g]	2a
.	2d	.	2f	2a
.	[1G	2r	2.g	[1g
.	.	[2B	.	.
.	.	.	4f	.
=41	=41	=41	=41	=41
1E	1G]	2B]	4e	1g]
.	.	.	4d	.
.	.	1c	2e	.
1F	1r	.	1A	1r
.	.	[2d	.	.
=42	=42	=42	=42	=42
1G	1B	2d]	2r	0r
.	.	1G	2d	.
1C	1c	.	1e	.
.	.	2A	.	.
=43	=43	=43	=43	=43
1G	1d	2B	1.g	2r
.	.	2.d	.	2b
2E	2G	.	.	1cc
.	.	4c	.	.
2F	2A	2c	2f	.
=44	=44	=44	=44	=44
1D	2A	1f	1r	1dd
.	2B	.	.	.
1C	1c	1e	2r	1g
.	.	.	2cc	.
=45	=45	=45	=45	=45
2r	1G	1d	2.b	1dd
2G	.	.	.	.
.	.	.	4a	.
2G	1r	2e	4g	2b
.	.	.	4f	.
2A	.	2c	2e	2cc
=46	=46	=46	=46	=46
1F	0r	4d	1f	1a
.	.	4c	.	.
.	.	1c	.	.
1G	.	.	1d	2.g
.	.	2B	.	.
.	.	.	.	4f
=47	=47	=47	=47	=47
2r	2r	1c	1c	2.e
1A	1c	.	.	.
.	.	.	.	4d
.	.	[1e	1r	4c
.	.	.	.	4d
2A	2c	.	.	4e
.	.	.	.	4f
=48	=48	=48	=48	=48
2G	2B	2e]	2r	1g
2E	2G	2e	1g	.
1G	1B	2d	.	2r
.	.	2B	2g	[2dd
=49	=49	=49	=49	=49
1D	1A	1d	2f	2dd]
.	.	.	2d	2dd
2r	1r	2A	1f	2cc
[2A	.	[2c	.	2a
=50	=50	=50	=50	=50
2A]	2r	2c]	1e	1cc
2A	1e	2A	.	.
2G	.	2.B	2r	[1b
2E	2e	.	[2g	.
.	.	4B	.	.
=51	=51	=51	=51	=51
2G	2d	2B	2g]	1b]
2G	2B	2G	2g	.
1D	1d	1A	2f	2r
.	.	.	2d	[2dd
=52	=52	=52	=52	=52
1D	1d	1A	2f	2dd]
.	.	.	1f	2dd
1r	1A	1r	.	2cc
.	.	.	4e	2a
.	.	.	4d	.
=53	=53	=53	=53	=53
0r	1A	2r	2e	2cc
.	.	2.e	1a	2cc
.	1r	.	.	1b
.	.	4e	.	.
.	.	2e	2g#	.
=54	=54	=54	=54	=54
2r	1r	2c	2.a	0a
2.A	.	2A	.	.
.	.	.	8g	.
.	.	.	8f	.
.	2r	1c	1e	.
4A	.	.	.	.
2A	[2e	.	.	.
=55	=55	=55	=55	=55
2G	4e]	2B	2r	0r
.	4e	.	.	.
2E	2e	4G	2.g	.
.	.	4A	.	.
1G	2d	4B	.	.
.	.	4c	4g	.
.	2B	[2d	2g	.
=56	=56	=56	=56	=56
1D	1d	4d]	2f	2r
.	.	4e	.	.
.	.	2f	2d	2.a
1A	2c	2e	2.e	.
.	.	.	.	4a
.	[2c	4A	.	2a
.	.	4B	4d	.
=57	=57	=57	=57	=57
1E	2c]	4c	4e	2g
.	.	4d	4f	.
.	4B	1e	1g	2e
.	4A	.	.	.
1r	1B	.	.	2g
.	.	[2d	2d	2g
=58	=58	=58	=58	=58
1AA	1A	2d]	2e	[0a
.	.	2c#	2e	.
[1D	2r	1d	[1f	.
.	2D	.	.	.
=59	=59	=59	=59	=59
2D]	1.A	0r	2f]	1a]
2C	.	.	2e	.
2D	.	.	2f	1r
2F	2A	.	2a	.
=60	=60	=60	=60	=60
2E	1B	0r	2g	0r
1D	.	.	2.f	.
.	2.A	.	.	.
.	.	.	4d	.
2C	.	.	2e	.
.	4c	.	.	.
=61	=61	=61	=61	=61
2.D	4B	2r	1f	1r
.	4A	.	.	.
.	1A	2A	.	.
4C	.	.	.	.
1BB	.	[1d	2r	1d
.	2G#	.	2d	.
=62	=62	=62	=62	=62
1AA	1A	2d]	2f	1.a
.	.	2c	2e	.
1r	1r	2d	2f	.
.	.	2f	2a	2a
=63	=63	=63	=63	=63
0r	0r	2e	2g	1b
.	.	1d	2.f	.
.	.	.	.	2a
.	.	.	4d	.
.	.	2c	2e	2cc
=64	=64	=64	=64	=64
0r	1r	2.d	2.f	4b
.	.	.	.	4a
.	.	.	.	1a
.	.	4c	4e	.
.	2r	1B	1d	.
.	[2d	.	.	2g#
=65	=65	=65	=65	=65
2r	2d]	0A	1e	[0a
2A	1c	.	.	.
1F	.	.	2r	.
.	[2A	.	2a	.
=66	=66	=66	=66	=66
1D	2A]	1d	1f	1a]
.	2.d	.	.	.
2.G	.	1B	1d	1r
.	4c	.	.	.
.	[2B	.	.	.
4F	.	.	.	.
=67	=67	=67	=67	=67
2.E	2B]	2G	2.g	0r
.	2.e	2.g	.	.
4D	.	.	4f	.
1C	.	.	2e	.
.	4d	4f	.	.
.	4c	4e	[2cc	.
.	4B	4d	.	.
=68	=68	=68	=68	=68
1F	1A	2c	2cc]	0r
.	.	2d	4b	.
.	.	.	4a	.
[1E	2B	[1e	2g#	.
.	2c	.	[2a	.
=69	=69	=69	=69	=69
1E]	2B	1e]	2a]	1ee
.	1e	.	2g#	.
1A	.	2r	1a	1cc
.	[2c	2e	.	.
=70	=70	=70	=70	=70
1F	2c]	2.f	2r	1a
.	1A	.	2a	.
.	.	4g	.	.
1D	.	2a	1f	2.dd
.	[2d	2A	.	.
.	.	.	.	4cc
=71	=71	=71	=71	=71
1.G	4d]	1.B	2d	4b
.	4c	.	.	4a
.	4d	.	2g	1b
.	4e	.	.	.
.	2d	.	4g	.
.	.	.	4f	.
2A	2c	[2e	4e	[2a
.	.	.	4d	.
=72	=72	=72	=72	=72
1E	1B	4e]	1e	4a]
.	.	4d	.	8g#
.	.	.	.	8f#
.	.	2B	.	2g#
[1AA	[1A	[1c#	[1e	[1a
=73	=73	=73	=73	=73
1AA]	1A]	1c#]	1e]	1a]
!! Et incarnatus
*Ibass	*Ibarit	*Itenor	*Icalto	*Icant
!Bassus	!Baritone	!Tenor	!Altus	!Cantus
*clefF4	*clefF4	*clefGv2	*clefG2	*clefG2
*k[]	*k[]	*k[]	*k[]	*k[]
*A:aeo	*A:aeo	*A:aeo	*A:aeo	*A:aeo
*M4/2	*M4/2	*M4/2	*M4/2	*M4/2
=74	=74	=74	=74	=74
0r	1E	1B	1e	1g#
.	2E	2B	2e	2g#
.	2E	2B	2e	2g#
=75	=75	=75	=75	=75
1AA	0A	0c	[0e	0a
2AA	.	.	.	.
2AA	.	.	.	.
=76	=76	=76	=76	=76
1E	2.G	1B	1e]	1b
.	4F	.	.	.
1C	4E	1e	1g	1cc
.	4C	.	.	.
.	[2c	.	.	.
=77	=77	=77	=77	=77
0G	2c]	2d	1g	1dd
.	4B	2G	.	.
.	4A	.	.	.
.	1B	[1d	1g	2r
.	.	.	.	2d
=78	=78	=78	=78	=78
0r	1A	2d]	2f	1a
.	.	2c#	2e	.
.	1r	1d	1f	2a
.	.	.	.	2a
=79	=79	=79	=79	=79
1E	2r	1B	1e	1g#
.	2B	.	.	.
2A	2c#	1A	[1e	1a
[2A	[2c#	.	.	.
=80	=80	=80	=80	=80
2A]	2c#]	2r	1e]	0r
2G#	2B	2E	.	.
1A	[1c	2e	2r	.
.	.	[2e	2e	.
=81	=81	=81	=81	=81
1F	2c]	2e]	2a	0r
.	4B	2d	1a	.
.	4A	.	.	.
1E	2B	1e	.	.
.	2B	.	2g#	.
=82	=82	=82	=82	=82
0r	1A	1c#	2.a	1e
.	.	.	4g	.
.	2r	2.d	2.f	2a
.	2D	.	.	[2a
.	.	4c	4e	.
=83	=83	=83	=83	=83
0r	2d	1B	1d	2a]
.	1d	.	.	2g#
.	.	1A	1e	[1a
.	2c#	.	.	.
=84	=84	=84	=84	=84
1r	2d	1r	1f	2a]
.	2d	.	.	2a
1E	2B	2r	1e	1g
.	[2B	2e	.	.
=85	=85	=85	=85	=85
1E	2B]	4g	2r	1b
.	.	4f	.	.
.	1G	4e	2g	.
.	.	4d	.	.
1C	.	2e	2g	1cc
.	[2A	2e	2c	.
=86	=86	=86	=86	=86
0D	2A]	2.d	2.f	2a
.	2B	.	.	2.dd
.	.	4e	4e	.
.	2A	4f	2d	.
.	.	4e	.	4cc
.	[2d	4d	2f	4b
.	.	4c	.	4a
=87	=87	=87	=87	=87
0E	2d]	2B	1e	2g#
.	2c	2A	.	1a
.	2B	1B	2r	.
.	[2E	.	[2e	2g#
=88	=88	=88	=88	=88
1AA	2E]	1c	2e]	0a
.	2.A	.	2c	.
2D	.	[1A	2d	.
.	4G	.	.	.
2C#	2E	.	[2e	.
=89	=89	=89	=89	=89
1D	1F	1A]	2e]	2r
.	.	.	2d	1a
1r	[1E	[1B	[1e	.
.	.	.	.	2g
=90	=90	=90	=90	=90
1r	1E]	1B]	1e]	1g
2r	1r	1A	[1c	2f
[2A	.	.	.	4e
.	.	.	.	4d
=91	=91	=91	=91	=91
2A]	2r	0r	2c]	1e
2G	1e	.	2B	.
1G	.	.	1B	1r
.	2d	.	.	.
=92	=92	=92	=92	=92
1F	2d	2r	4A	0r
.	.	.	4B	.
.	1c	1a	4c	.
.	.	.	4d	.
[1E	.	.	[1e	.
.	4B	2g	.	.
.	4A	.	.	.
=93	=93	=93	=93	=93
2E]	1B	1g	1e]	0r
2E	.	.	.	.
2D	2d	2f	1r	.
2E	2c	[2e	.	.
=94	=94	=94	=94	=94
1F	2A	2e]	2r	0r
.	2A	2d	1a	.
[1E	1e	2c	.	.
.	.	4B	2g	.
.	.	4A	.	.
=95	=95	=95	=95	=95
1E]	1e	2B	1g	1.b
.	.	2B	.	.
1r	2r	1d	2.f	.
.	[2d	.	.	2a
.	.	.	4g	.
=96	=96	=96	=96	=96
0r	2d]	1A	4a	1a
.	.	.	4b	.
.	2c	.	2.cc	.
.	2A	2.e	.	1a
.	.	.	4b	.
.	2A	.	[2a	.
.	.	4e	.	.
=97	=97	=97	=97	=97
0r	1B	1d	2a]	1dd
.	.	.	2g#	.
.	2.A	2e	1a	[1cc
.	.	[2f	.	.
.	4B	.	.	.
=98	=98	=98	=98	=98
1r	1c	2f]	1g	0cc]
.	.	2e	.	.
1A	2r	2r	[1a	.
.	2A	2e	.	.
=99	=99	=99	=99	=99
1.A	1.c	2f	1a]	0r
.	.	2e	.	.
.	.	2f	1r	.
2G	2B	[2e	.	.
=100	=100	=100	=100	=100
2F	2A	2e]	0r	0r
2G	2B	1d	.	.
[1E	2G	.	.	.
.	[2A	2c	.	.
=101	=101	=101	=101	=101
1E]	2A]	1B	1e	1b
.	2G#	.	.	.
1AA	1A	1e	1c	2cc
.	.	.	.	[2cc
=102	=102	=102	=102	=102
0r	2.E	2e	1.g	2cc]
.	.	1e	.	2b
.	4E	.	.	.
.	2C	.	.	2cc
.	2G	2d	2g	[2b
=103	=103	=103	=103	=103
0r	2A	2c#	2e	4b]
.	.	.	.	4a
.	2D	2d	2f	1a
.	1E	1B	1e	.
.	.	.	.	2g#
!! Et resurrexit
*Ibass	*Ibarit	*Itenor	*Icalto	*Icant
!Bassus	!Baritone	!Tenor	!Altus	!Cantus
*clefF4	*clefF4	*clefGv2	*clefG2	*clefG2
*k[]	*k[]	*k[]	*k[]	*k[]
*A:aeo	*A:aeo	*A:aeo	*A:aeo	*A:aeo
*M3/2	*M3/2	*M3/2	*M3/2	*M3/2
=104	=104	=104	=104	=104
2D	2A	1d	2f	1a
2F	2A	.	2a	.
2G	2B	2r	2g	2r
=105	=105	=105	=105	=105
1A	2.c	2A	1e	1r
.	.	2c	.	.
.	8B	.	.	.
.	8A	.	.	.
2B	2G	2d	2g	2r
=106	=106	=106	=106	=106
2.c	2C	1e	1g	2e
.	1c	.	.	2g
4B	.	.	.	.
2A	.	2f	2c	2a
=107	=107	=107	=107	=107
2G	1B	1g	2d	1b
2E	.	.	2.e	.
2A	[2A	2e	.	2cc#
.	.	.	4A	.
=108	=108	=108	=108	=108
1.D	2A]	2.f	2.a	1dd
.	2.d	.	.	.
.	.	4e	4g	.
.	.	[2d	2f#	2a
.	4c	.	.	.
=109	=109	=109	=109	=109
1r	2B	2d]	1g	2b
.	1A	2e	.	1cc
2r	.	2c	2f#	.
!! secundum Scripturas
*Ibass	*Ibarit	*Itenor	*Icalto	*Icant
!Bassus	!Baritone	!Tenor	!Altus	!Cantus
*clefF4	*clefF4	*clefGv2	*clefG2	*clefG2
*k[]	*k[]	*k[]	*k[]	*k[]
*A:aeo	*A:aeo	*A:aeo	*A:aeo	*A:aeo
*M4/2	*M4/2	*M4/2	*M4/2	*M4/2
=110	=110	=110	=110	=110
1r	0G	2d	2g	1b
.	.	1B	2d	.
1E	.	.	1e	1r
.	.	[2c	.	.
=111	=111	=111	=111	=111
1F	2r	2c]	2c	0r
.	2c	2A	1f	.
2D	2d	2B	.	.
2E	2G	[2c	[2e	.
=112	=112	=112	=112	=112
1F	1A	4c]	4e]	1r
.	.	4B	4d	.
.	.	1A	4d	.
.	.	.	8c	.
.	.	.	8d	.
1E	1B	.	1e	1b
.	.	2G#	.	.
=113	=113	=113	=113	=113
2AA	2A	1A	[0e	1cc
2.A	2c	.	.	.
.	2c	2r	.	2a
4A	.	.	.	.
2G#	2B	2e	.	2b
=114	=114	=114	=114	=114
0A	2A	2.c	0e]	0cc
.	2.c	.	.	.
.	.	4B	.	.
.	.	1A	.	.
.	4B	.	.	.
.	[2A	.	.	.
=115	=115	=115	=115	=115
[0E	2A]	[0B	[0e	[0b
.	4G#	.	.	.
.	4F#	.	.	.
.	1G#	.	.	.
=116	=116	=116	=116	=116
0E]	0G#	0B]	0e]	0b]
*	*	*	*	*-
!! Et ascendit
*Ibass	*Ibarit	*Itenor	*Icalto
!Bassus	!Baritone	!Tenor	!Altus
*clefF4	*clefF4	*clefGv2	*clefG2
*k[]	*k[]	*k[]	*k[]
*A:aeo	*A:aeo	*A:aeo	*A:aeo
*M4/2	*M4/2	*M4/2	*M4/2
=117	=117	=117	=117
0r	0r	1A	0r
.	.	2c	.
.	.	2B	.
=118	=118	=118	=118
1r	0r	2c	0r
.	.	2d	.
1E	.	1e	.
=119	=119	=119	=119
2F	0r	2A	0r
2E	.	2.e	.
2F	.	.	.
.	.	4d	.
2G	.	[2d	.
=120	=120	=120	=120
1A	1r	2d]	1e
.	.	2c	.
2D	1A	2d	2f
[2A	.	4c	2e
.	.	4B	.
=121	=121	=121	=121
2A]	2c	2A	2f
2G	2B	2e	2g
1F	2c	1A	1a
.	2d	.	.
=122	=122	=122	=122
2.E	1e	2B	0g
.	.	1c	.
4F	.	.	.
1G	1d	.	.
.	.	2B	.
=123	=123	=123	=123
1C	1e	1c	2r
.	.	.	2e
1r	2d	1r	2f
.	2c	.	2e
=124	=124	=124	=124
0r	2d	0r	2f
.	2e	.	2g
.	4A	.	1a
.	4B	.	.
.	4c	.	.
.	4d	.	.
=125	=125	=125	=125
1r	2e	1r	2g
.	1d	.	2f
1A	.	2r	1e
.	2c#	2A	.
=126	=126	=126	=126
2G	1d	2B	2r
2F	.	2A	2a
2G	2r	2B	2g
2A	[2A	2c	2e
=127	=127	=127	=127
4D	4A]	2d	1f
4E	4G	.	.
4F	4A	2.c	.
4G	4B	.	.
4A	1c	.	2e
4B	.	4d	.
[2c	.	4e	2e
.	.	4f	.
=128	=128	=128	=128
2c]	1G	1g	1d
2B	.	.	.
2c	2r	1e	2.c
2A	2c	.	.
.	.	.	4d
=129	=129	=129	=129
2A	2c	2r	1e
2G	2B	2e	.
2A	2c	2e	1r
2D	2d	2f	.
=130	=130	=130	=130
2.A	2.c	2e	0r
.	.	4A	.
4G	4B	4B	.
2F	2A	4c	.
.	.	4d	.
2E	2G	2e	.
=131	=131	=131	=131
1F	1A	2c	2r
.	.	2d	2a
1E	1B	1e	2a
.	.	.	2g#
=132	=132	=132	=132
0r	2r	1f	2a
.	2d	.	2d
.	2d	2f	2.a
.	2c#	2e	.
.	.	.	4g
=133	=133	=133	=133
1r	2d	2d	2f
.	2A	2c#	2e
2r	2D	1d	1f
2A	2D	.	.
=134	=134	=134	=134
2A	1E	1B	1e
2G#	.	.	.
2A	1r	2c	2e
2D	.	2d	2f
=135	=135	=135	=135
2.A	2r	2d	1e
.	2A	2c	.
4G	.	.	.
2F	2A	2d	1r
2E	2G	2e	.
=136	=136	=136	=136
1F	1A	2c	2r
.	.	2d	2a
1E	1B	1e	2a
.	.	.	2g#
=137	=137	=137	=137
1D	2r	1f	2a
.	2d	.	2d
1r	2d	2f	2.a
.	2c#	2e	.
.	.	.	4g
=138	=138	=138	=138
1r	2d	2d	4f
.	.	.	8e
.	.	.	8d
.	2A	2c	2e
1D	2.d	2B	1f
.	.	2A	.
.	4c	.	.
=139	=139	=139	=139
1E	2B	2G	1e
.	2A	2c	.
1E	2G	2B	1e
.	[2c	2G	.
=140	=140	=140	=140
1F	2c]	4A	2.c
.	.	4B	.
.	1A	4c	.
.	.	4A	4c
1D	.	2d	2f
.	[2B	2d	2f
=141	=141	=141	=141
0E	2B]	2.c	0e
.	1A	.	.
.	.	8B	.
.	.	8A	.
.	.	1B	.
.	2G#	.	.
=142	=142	=142	=142
1r	0A	1c#	2r
.	.	.	1e
1A	.	1c	.
.	.	.	2f#
=143	=143	=143	=143
2B	0r	2d	1g
2.c	.	2.e	.
.	.	.	1g
4c	.	4e	.
2B	.	2d	.
=144	=144	=144	=144
2A	0r	2e	1a
2F	.	2f	.
1G	.	4e	2.g
.	.	4d	.
.	.	[2d	.
.	.	.	4f
=145	=145	=145	=145
1A	2r	2d]	1e
.	1A	2c	.
1D	.	1f	1d
.	2B	.	.
=146	=146	=146	=146
1.A	1c	1e	2r
.	.	.	1e
.	1c	2A	.
2A	.	[2c	2f#
=147	=147	=147	=147
1G	1d	4c]	1g
.	.	8B	.
.	.	8A	.
.	.	2B	.
1C	[1c	[1e	1g
=148	=148	=148	=148
2r	2c]	1e]	2a
1E	4B	.	1g
.	4A	.	.
.	2G	1r	.
2F	2A	.	4f
.	.	.	4e
=149	=149	=149	=149
1G	2B	0r	2d
.	1c	.	2e
1G	.	.	1d
.	2B	.	.
=150	=150	=150	=150
1A	2c	0r	1c
.	1A	.	.
2c	.	.	[1e
2G	2B	.	.
=151	=151	=151	=151
1A	1c	1r	2e]
.	.	.	2f#
1E	1B	2r	1g
.	.	[2B	.
=152	=152	=152	=152
1E	1G	2B]	1g
.	.	2c	.
2F#	2A	1d	1r
[2G	[2B	.	.
=153	=153	=153	=153
4G]	4B]	1d	2r
4G	4B	.	.
2F	2A	.	1a
2E	2B	1e	.
2C	2c	.	[2g
=154	=154	=154	=154
1D	2B	2.d	2g]
.	1A	.	2f
.	.	4c	.
1E	.	1B	1e
.	2G#	.	.
=155	=155	=155	=155
0AA	0A	0c#	0e
*-	*-	*-	*-
!! Et in Spiritum
**kern	**kern	**kern	**kern	**kern
*Ibass	*Ibarit	*Itenor	*Icalto	*Icant
!Bassus	!Baritone	!Tenor	!Altus	!Cantus
*clefF4	*clefF4	*clefGv2	*clefG2	*clefG2
*k[]	*k[]	*k[]	*k[]	*k[]
*A:aeo	*A:aeo	*A:aeo	*A:aeo	*A:aeo
*M4/2	*M4/2	*M4/2	*M4/2	*M4/2
=156	=156	=156	=156	=156
0r	0r	1.A	1r	0r
.	.	.	[1A	.
.	.	2A	.	.
=157	=157	=157	=157	=157
0r	0r	2.c	2A]	1.e
.	.	.	2A	.
.	.	4d	.	.
.	.	2e	2.c	.
.	.	[2c	.	2e
.	.	.	4d	.
=158	=158	=158	=158	=158
0r	0r	2c]	2e	2.g
.	.	4B	1g	.
.	.	4A	.	4a
.	.	2.G	.	2b
.	.	.	4f	[2dd
.	.	4A	4e	.
=159	=159	=159	=159	=159
0r	0r	2B	2d	2dd]
.	.	2c	2e	4cc
.	.	.	.	4b
.	.	2d	2f	2a
.	.	2d	2f	2b
=160	=160	=160	=160	=160
1r	2r	1A	1e	2cc
.	1A	.	.	2cc
1E	.	2.e	1r	1b
.	2G	.	.	.
.	.	4e	.	.
=161	=161	=161	=161	=161
1A	2.c	2e	0r	1r
.	.	2.f	.	.
.	4A	.	.	.
2G	2B	.	.	2r
.	.	4e	.	.
2A	2c	[2e	.	2e
=162	=162	=162	=162	=162
1F	1A	2e]	1r	1.a
.	.	2d	.	.
1E	1B	2e	2r	.
.	.	2B	2e	2g#
=163	=163	=163	=163	=163
0r	0r	1d	1f	2a
.	.	.	.	2.b
.	.	2c#	2e	.
.	.	.	.	4a
.	.	2d	2f	[2a
=164	=164	=164	=164	=164
1r	2r	1B	1d	2a]
.	1d	.	.	2g#
2r	.	2A	1e	1a
[2A	4c	[2e	.	.
.	4B	.	.	.
=165	=165	=165	=165	=165
2A]	2c	2e]	0r	0r
2G	2B	2e	.	.
2F	2A	2d	.	.
2E	2G	2e	.	.
=166	=166	=166	=166	=166
2.F	2.A	2.c	2r	0r
.	.	.	1f	.
4E	4G	4c	.	.
2D	2F	2d	.	.
2C	2c	2G	2e	.
=167	=167	=167	=167	=167
1F	4A	2r	2d	0r
.	4B	.	.	.
.	4c	2A	2c	.
.	4A	.	.	.
1D	2B	1f	2.d	.
.	2A	.	.	.
.	.	.	4c	.
=168	=168	=168	=168	=168
0E	2G#	1e	2B	0r
.	1A	.	2A	.
.	.	2r	1B	.
.	2G#	[2e	.	.
=169	=169	=169	=169	=169
2r	1A	4e]	2.c	2r
.	.	4d	.	.
1A	.	4c	.	1cc
.	.	4B	4d	.
.	1r	2A	1e	.
2G	.	2B	.	2b
=170	=170	=170	=170	=170
2A	0r	1c	1e	2a
2E	.	.	.	2g
1F	.	2c	1r	1a
.	.	2A	.	.
=171	=171	=171	=171	=171
2E	1r	2B	1r	2g
2D	.	2B	.	2f
1C	2r	1c	2r	1e
.	[2c	.	[2e	.
=172	=172	=172	=172	=172
0r	2c]	1r	2e]	2.g
.	2B	.	2d	.
.	.	.	.	4g
.	2A	2r	2c	2f
.	2G	[2d	2B	2g
=173	=173	=173	=173	=173
0r	1A	2d]	2A	2.e
.	.	2c	2.e	.
.	.	.	.	4f
.	2G	2B	.	2g
.	.	.	4d	.
.	2F	2A	2d	[2a
=174	=174	=174	=174	=174
1r	1E	1B	0e	2a]
.	.	.	.	2g#
2r	2r	1A	.	1a
2c	2e	.	.	.
=175	=175	=175	=175	=175
2c	2e	0r	2g	0r
2B	2d	.	2g	.
2A	2c	.	2f	.
2G	2B	.	[2e	.
=176	=176	=176	=176	=176
2.A	2.c	0r	2e]	0r
.	.	.	2c	.
4G	4B	.	.	.
2F	2A	.	2d	.
2E	2G	.	2e	.
=177	=177	=177	=177	=177
1F	2.c	0r	2A	2r
.	.	.	2a	2cc
.	4d	.	.	.
1E	1e	.	2a	2cc
.	.	.	2g	2b
=178	=178	=178	=178	=178
0r	0r	1r	2f	2a
.	.	.	2e	2g
.	.	2r	2.f	2.a
.	.	2f	.	.
.	.	.	4e	4g
=179	=179	=179	=179	=179
0r	0r	2f	2d	2f
.	.	2e	2c	2g
.	.	2d	2f	[1a
.	.	2c#	2e	.
=180	=180	=180	=180	=180
1r	2r	1d	1f	1a]
.	1d	.	.	.
2r	.	1A	1e	2r
[2A	2c	.	.	[2a
=181	=181	=181	=181	=181
2A]	1c	1.e	2r	2a]
2A	.	.	1a	2a
1E	[1B	.	.	2b
.	.	2e	2g#	2b
=182	=182	=182	=182	=182
1E	2B]	2e	2g#	1ee
.	1e	2B	2g#	.
1A	.	4c	1a	1cc
.	.	4d	.	.
.	[2c	4e	.	.
.	.	8d	.	.
.	.	8e	.	.
=183	=183	=183	=183	=183
1F	2c]	2f	2a	1a
.	1A	2.a	2.f	.
1D	.	.	.	2.dd
.	.	4g	4g	.
.	[2d	4f	2a	.
.	.	4e	.	4cc
=184	=184	=184	=184	=184
1.G	4d]	2d	2g	4b
.	4c	.	.	4a
.	4B	2d	2.g	1b
.	4A	.	.	.
.	2B	[1e	.	.
.	.	.	4f	.
2A	2c	.	[2e	[2a
=185	=185	=185	=185	=185
1E	1B	1e]	4e]	2a]
.	.	.	4d	.
.	.	.	2B	2g#
[1AA	[1A	2e	2c#	1a
.	.	2c#	2e	.
=186	=186	=186	=186	=186
1AA]	1A]	2c#	2e	2r
.	.	2c#	2e	2a
1r	1r	1d	1f#	2a
.	.	.	.	2a
=187	=187	=187	=187	=187
0r	0r	1G	1g	1b
.	.	1A	2e	2cc
.	.	.	[2a	2cc
=188	=188	=188	=188	=188
1E	2r	2.e	2a]	1.b
.	2B	.	4g#	.
.	.	4e	4f#	.
2E	2B	2e	2g#	.
2E	2B	2e	2g#	2b
=189	=189	=189	=189	=189
2.A	2.c#	2e	1a	0a
.	.	2e	.	.
4A	4c#	.	.	.
1D	1d	2.f#	1r	.
.	.	4f#	.	.
=190	=190	=190	=190	=190
1E	1B	1g	2r	0r
.	.	.	1e	.
2.A	2c	1e	.	.
.	2c	.	[2a	.
4A	.	.	.	.
=191	=191	=191	=191	=191
0E	1B	2.e	2a]	2r
.	.	.	2g#	2b
.	.	4e	.	.
.	2r	[1e	2.g#	2b
.	2e	.	.	2b
.	.	.	4g#	.
=192	=192	=192	=192	=192
2r	2A	1e]	1a	2.cc#
2A	1A	.	.	.
.	.	.	.	4cc#
2D	.	2r	1f	1dd
2D	[2B	2d	.	.
=193	=193	=193	=193	=193
2.E	4B]	4g	1.e	1b
.	4B	4f	.	.
.	2G	4e	.	.
4E	.	4d	.	.
2AA	1A	2c	.	2.cc
2A	.	2A	2e	.
.	.	.	.	4cc
=194	=194	=194	=194	=194
2A	2B	1E	0e	1b
2G#	2B	.	.	.
[1A	[1c#	1r	.	2r
.	.	.	.	2e
=195	=195	=195	=195	=195
1A]	1c#]	2r	2r	2.a
.	.	2A	2e	.
.	.	.	.	4a
1r	1r	2.d	2.f	1a
.	.	4c	4e	.
=196	=196	=196	=196	=196
0r	0r	2d	2f	1a
.	.	2f	2a	.
.	.	2e	2g	1b
.	.	[2d	[2f	.
=197	=197	=197	=197	=197
0r	0r	2d]	2f]	2.a
.	.	2c	2e	.
.	.	.	.	4cc
.	.	2.d	1f	4b
.	.	.	.	4a
.	.	.	.	[2a
.	.	4c	.	.
=198	=198	=198	=198	=198
1E	2r	1B	1e	2a]
.	2B	.	.	2g#
2A	2c	1A	2r	1a
[2A	[2c	.	2A	.
=199	=199	=199	=199	=199
2A]	2c]	0r	2e	0r
2G	2B	.	1e	.
2A	2c	.	.	.
2c	2A	.	2e	.
=200	=200	=200	=200	=200
2B	2d	0r	2g	0r
1A	2.c	.	2f	.
.	.	.	1e	.
.	8B	.	.	.
.	8A	.	.	.
2G	2B	.	.	.
=201	=201	=201	=201	=201
2.A	1c	1r	2f	2r
.	.	.	2.e	2e
4G	.	.	.	.
1F	1A	2r	.	2a
.	.	.	4d	.
.	.	2A	2d	[2a
=202	=202	=202	=202	=202
1E	2r	2e	2c	2a]
.	2E	1e	2B	2g
1r	1A	.	4c	2a
.	.	.	4d	.
.	.	2c	4e	2cc
.	.	.	4f	.
=203	=203	=203	=203	=203
0r	2G	2d	2g	2b
.	2F	2f	1c	1a
.	2G	2e	.	.
.	2G	[2d	2B	[2g
=204	=204	=204	=204	=204
0r	2A	2d]	1c	2g]
.	2A	1c	.	2f#
.	1G	.	1d	[1g
.	.	2B	.	.
=205	=205	=205	=205	=205
0C	1G	1c	1e	1g]
.	2r	1e	[1g	1cc
.	2G	.	.	.
=206	=206	=206	=206	=206
1G	1B	2d	1g]	1b
.	.	1e	.	.
1A	1c	.	2.e	1a
.	.	2A	.	.
.	.	.	4f	.
=207	=207	=207	=207	=207
0E	1B	2r	1g	1b
.	.	2.e	.	.
.	2.G	.	1g	2.b
.	.	4e	.	.
.	.	2e	.	.
.	4G	.	.	4b
=208	=208	=208	=208	=208
0r	2G	1d	0r	2b
.	2F	.	.	2a
.	2F	2c	.	2a
.	2C	2e	.	2g
=209	=209	=209	=209	=209
0r	4D	4d	2.a	4f
.	4A	4c#	.	4e
.	2D	2d	.	2f
.	.	.	4a	.
.	2A	2c#	2a	1e
.	[2c	[2e	2g	.
=210	=210	=210	=210	=210
0r	2c]	2e]	2g	2cc
.	2d	2d	2f	2a
.	1A	4c#	4e	1a
.	.	2d	4d	.
.	.	.	2e	.
.	.	4c#	.	.
=211	=211	=211	=211	=211
2r	1D	2.d	2d	0a
2D	.	.	2f	.
.	.	8c	.	.
.	.	8B	.	.
1D	2r	1A	1f	.
.	2A	.	.	.
=212	=212	=212	=212	=212
2C	1A	1c	2e	0r
2AA	.	.	2c	.
2.C	[1G	1c	2.e	.
4D	.	.	4f	.
=213	=213	=213	=213	=213
2.E	1G]	2B	2.g	0r
.	.	2G	.	.
4F	.	.	8f	.
.	.	.	8e	.
2.G	1r	2.B	2d	.
.	.	.	2e	.
8F	.	4c	.	.
8E	.	.	.	.
=214	=214	=214	=214	=214
2D	0r	2d	2f	1a
2E	.	4c	1e	.
.	.	4B	.	.
2F	.	1A	.	1a
2F	.	.	2d	.
=215	=215	=215	=215	=215
0E	1r	1B	1e	2g
.	.	.	.	2e
.	2r	2e	1r	2.g
.	2E	2e	.	.
.	.	.	.	4a
=216	=216	=216	=216	=216
0r	2.G	4d	2r	2.b
.	.	4c	.	.
.	.	4B	2g	.
.	4A	4A	.	4cc
.	2.B	1G	1g	2.dd
.	4c	.	.	8cc
.	.	.	.	8b
=217	=217	=217	=217	=217
2r	2d	0r	2f	2.a
2A	4c	.	2e	.
.	4B	.	.	4b
2A	2A	.	2e	2cc
2G#	2B	.	2e	[2b
=218	=218	=218	=218	=218
1A	1c	2r	2e	2b]
.	.	2e	2A	1a
1E	1B	1e	2B	.
.	.	.	2e	2g#
=219	=219	=219	=219	=219
1AA	1A	1c#	1e	1a
1D	1r	1d	1A	1f
=220	=220	=220	=220	=220
1D	1F	2r	1A	1f
.	.	1A	.	.
2AA	1A	.	2.c	2e
2AA	.	[2c	.	[2e
.	.	.	4d	.
=221	=221	=221	=221	=221
2.C	1G	4c]	2.e	2e]
.	.	4d	.	.
.	.	2.e	.	2.g
4D	.	.	4f	.
2.E	1G	.	2.g	.
.	.	4f	.	4a
.	.	[2g	.	[2b
4F	.	.	8f	.
.	.	.	8e	.
=222	=222	=222	=222	=222
2.G	2.B	4g]	2.d	4b]
.	.	8f	.	4cc
.	.	8e	.	.
.	.	2.d	.	2.dd
8F	4c	.	4e	.
8E	.	.	.	.
2.D	2.d	.	2.f	.
.	.	4e	.	8cc
.	.	.	.	8b
.	.	[2f	.	[2a
4E	8c	.	4g	.
.	8B	.	.	.
=223	=223	=223	=223	=223
2.F	1.A	2f]	1.a	4a]
.	.	.	.	4b
.	.	2f	.	1cc
4G	.	.	.	.
2A	.	2.e	.	.
2G#	2B	.	2e	2b
.	.	4d	.	.
=224	=224	=224	=224	=224
2A	2c	2c	2.e	2a
2A	2c	2A	.	2a
.	.	.	4e	.
1E	1B	4B	1e	2g
.	.	4G	.	.
.	.	[2g	.	2b
=225	=225	=225	=225	=225
1C	1e	4g]	1g	1cc
.	.	4f	.	.
.	.	2e	.	.
1D	4d	4f	1f	2a
.	4c	4e	.	.
.	4B	4d	.	[2b
.	4A	4c	.	.
=226	=226	=226	=226	=226
0E	2G	2B	1e	2b]
.	2c	2E	.	1a
.	1B	2r	2.e	.
.	.	[2e	.	2g#
.	.	.	4d	.
=227	=227	=227	=227	=227
0AA	2A	4e]	4c	[0a
.	.	4d	4B	.
.	2.e	2.c	4A	.
.	.	.	4B	.
.	.	.	4c	.
.	4d	4B	4d	.
.	4c	4A	2e	.
.	4B	4G	.	.
=228	=228	=228	=228	=228
1.D	4A	2F	1d	1a]
.	4G	.	.	.
.	4F	1f	.	.
.	4E	.	.	.
.	2D	.	2r	2.a
2C#	2E	2e	[2a	.
.	.	.	.	4g
=229	=229	=229	=229	=229
0D	0A	0d	4a]	4f
.	.	.	4g	4e
.	.	.	4f	2d
.	.	.	4e	.
.	.	.	1f	1a
=230	=230	=230	=230	=230
0AA	0A	0c#	0e	0a
==	==	==	==	==
*-	*-	*-	*-	*-
!!!CDT: 1525/^1526/-1594/2/2
!!!OCY: Italia
!!!AGN: Mass (Parody)
!!!AST: renaissance, vocal
!!!ASW: Madrigal 1548 (anon (Rore, Morales))
!!!PWK: Masses, Book 11
!!!RNB: Cadence finals: G,E
!!!YOR: Le Opere Complete, v. 28, p. 73
!!!YOO: Rome, Italy: Fratelli Scalera
!!!END: 1992//
!!!EED: John Miller
!!!YEC: Copyright 2000, John Miller
!!!YEN: United States of America
!!!YEM: Rights to all derivative electronic formats reserved.
!!!YEM: Refer to licensing agreement for further details.
!!!YEM: This file must be accompanied by the licensing agreement.
!!!YEM: A copy of the licensing agreement may be found at http://www.music-cog.ohio-state.edu/HumdrumDatabases/Palestrina/license.txt
!!!EMD: converted to Humdrum by Bret Aarden
